X: 8794
T: Cuckoo's Nest, The
R: hornpipe
M: 4/4
K: Gmajor
|:dc|BcBA GBdg|fdcB cedc|BcBG FGAB|c2A2 A2dc|
BcBA GBdg|fdcB cedc|(3Bcd BG FGAc|B2G2 G2:|
|:z2|dggf gabg|afd^c d2de|fede fgaf|gfdB cedc|
BcBA GBdg|fdcB cedc|(3Bcd BG FGAc|B2G2 G2:|
|:Bc|dBGB dBGB|dBcA G2AB|cAFA cAFA|cBAG F2BA|
GABc dg~g2|bgdB cedc|(3Bcd BG FGAc|B2G2 G2:|

